gilbertguide/assets/images/item_2565.svg

<?xml version="1.0" standalone="no"?><!DOCTYPE svg PUBLIC "-//W3C//DTD SVG 1.1//EN" "http://www.w3.org/Graphics/SVG/1.1/DTD/svg11.dtd"><svg xmlns="http://www.w3.org/2000/svg" version="1.1" width="716px" height="60.2px" viewBox="0 0 716 60.2"><desc>Islands</desc><defs/><g id="Polygon12147"><path d="m3.2 28.9c0 0 0-19.7 0-19.7c-1.1-.1-1.8-.3-2.4-.6c0 .04 0-2.4 0-2.4l11.9 0c0 0 .02 2.44 0 2.4c-.6.3-1.3.5-2.4.6c0 0 0 19.7 0 19.7c1.1.1 1.8.3 2.4.5c.02.04 0 2.4 0 2.4l-11.9 0c0 0 0-2.36 0-2.4c.6-.2 1.3-.4 2.4-.5zm11.8.7c0-1.3.2-2.7.5-4c-.02 0 3.5 0 3.5 0c0 0 .64 3.56.6 3.6c.6.1 1.3.2 2 .2c1.7 0 2.9-.8 2.9-2.3c0-1.4-1.1-1.9-3-2.5c0 0-2.1-.6-2.1-.6c-2.6-.8-4.5-2.5-4.5-5.8c0-4.4 4.1-6.2 8.8-6.2c2.1 0 4.7.4 6.1 1.1c.2.5.2 1.2.2 1.7c0 1.2-.2 2.6-.5 3.9c-.02.02-3.5 0-3.5 0c0 0-.68-3.5-.7-3.5c-.5-.1-1-.2-1.6-.2c-1.5 0-2.9.6-2.9 2c0 1.6 1.2 2 2.7 2.5c0 0 2.1.7 2.1.7c3.1.9 5.2 2.3 5.2 5.5c0 4.3-3.2 6.6-9.2 6.6c-2.2 0-5-.4-6.4-1c-.2-.5-.2-1.2-.2-1.7zm19.5-.5c-.02-.02 0-21.5 0-21.5l-2.4-.5c0 0 .02-2.34 0-2.3c2.3-.6 5.7-1 9.1-1c0 0 0 25.3 0 25.3c.9.1 1.6.3 2.1.5c-.02 0 0 2.2 0 2.2l-10.9 0c0 0 .04-2.2 0-2.2c.5-.2 1.2-.4 2.1-.5zm21.2-8.5c0 0 0-2.5 0-2.5c0-1.8-.8-2.8-2.9-2.8c-.5 0-1.1.1-1.8.2c.04.02-.6 3.4-.6 3.4c0 0-3.8-.02-3.8 0c-.3-1.1-.5-2.2-.5-3.1c0-.6.1-1.4.2-1.8c2.5-1.3 5.7-1.9 8.6-1.9c4.9 0 7.5 1.8 7.5 5.7c0 3.2-.2 7.1-.2 10.7c.04.02 2 .5 2 .5c0 0 .04 2.24 0 2.2c-2.2.6-5 1-8.4 1c0 0 0-2.8 0-2.8c-.9 1.7-2.9 2.9-5.3 2.9c-3.3 0-5.6-1.8-5.6-5.4c0-5.1 4.9-6 10.8-6.3zm0 7.1c0 0 0-4.7 0-4.7c-2.8.2-4.5 1-4.5 3.1c0 1.7 1.1 2.4 2.4 2.4c.8 0 1.5-.3 2.1-.8zm12.4 1.4c.02-.02 0-13 0-13l-2-.5c0 0 .02-2.36 0-2.4c2.3-.6 5.4-1 8.7-1c0 0 0 3.1 0 3.1c1.4-2.2 3.9-3.3 6.7-3.3c3.9 0 6.1 2.4 6.1 6c0 0 0 11.1 0 11.1c.8.1 1.6.3 2 .5c0 0 0 2.2 0 2.2l-10.8 0c0 0 0-2.2 0-2.2c.4-.2 1.2-.4 2-.5c0 0 0-9.7 0-9.7c0-1.7-.9-2.6-2.5-2.6c-1.3 0-2.4.4-3.5 1.4c0 0 0 10.9 0 10.9c.9.1 1.7.3 2.1.5c.02 0 0 2.2 0 2.2l-10.8 0c0 0-.02-2.2 0-2.2c.4-.2 1.1-.4 2-.5zm32.5-17.2c1.7 0 3.1.7 4 1.6c-.04-.02 0-5.9 0-5.9l-2.5-.5c0 0-.02-2.34 0-2.3c2.3-.6 5.8-1 9.2-1c-.02.04 0 24.7 0 24.7l2 .5c0 0-.02 2.24 0 2.2c-2.3.6-5.2 1-8.6 1c0 0 0-3.2 0-3.2c-1.1 2.1-3.1 3.3-5.5 3.3c-4.7 0-7.8-3.6-7.8-9.7c0-6.6 3.8-10.7 9.2-10.7zm4 15c0 0 0-10.9 0-10.9c-.5-.2-1-.2-1.5-.2c-3.1 0-4.7 2.7-4.7 6.2c0 4.4 1.6 6 3.8 6c.9 0 1.7-.4 2.4-1.1zm11 2.7c0-1.3.2-2.7.5-4c-.02 0 3.5 0 3.5 0c0 0 .64 3.56.6 3.6c.6.1 1.3.2 2 .2c1.7 0 2.9-.8 2.9-2.3c0-1.4-1.1-1.9-3-2.5c0 0-2.1-.6-2.1-.6c-2.6-.8-4.5-2.5-4.5-5.8c0-4.4 4.1-6.2 8.8-6.2c2.1 0 4.7.4 6.1 1.1c.2.5.2 1.2.2 1.7c0 1.2-.2 2.6-.5 3.9c-.02.02-3.5 0-3.5 0c0 0-.68-3.5-.7-3.5c-.5-.1-1-.2-1.6-.2c-1.5 0-2.9.6-2.9 2c0 1.6 1.2 2 2.7 2.5c0 0 2.1.7 2.1.7c3.1.9 5.2 2.3 5.2 5.5c0 4.3-3.2 6.6-9.2 6.6c-2.2 0-5-.4-6.4-1c-.2-.5-.2-1.2-.2-1.7z" stroke="none" fill="#404040"/></g></svg>

<?xml version="1.0" standalone="no"?><!DOCTYPE svg PUBLIC "-//W3C//DTD SVG 1.1//EN" "http://www.w3.org/Graphics/SVG/1.1/DTD/svg11.dtd"><svg xmlns="http://www.w3.org/2000/svg" version="1.1" width="716px" height="60.2px" viewBox="0 0 716 60.2">  <desc>Islands</desc>  <defs/>  <g id="Polygon12009">    <path d="M 3.2 28.9 C 3.2 28.9 3.2 9.2 3.2 9.2 C 2.1 9.1 1.4 8.9 0.8 8.6 C 0.8 8.64 0.8 6.2 0.8 6.2 L 12.7 6.2 C 12.7 6.2 12.72 8.64 12.7 8.6 C 12.1 8.9 11.4 9.1 10.3 9.2 C 10.3 9.2 10.3 28.9 10.3 28.9 C 11.4 29 12.1 29.2 12.7 29.4 C 12.72 29.44 12.7 31.8 12.7 31.8 L 0.8 31.8 C 0.8 31.8 0.8 29.44 0.8 29.4 C 1.4 29.2 2.1 29 3.2 28.9 Z M 15 29.6 C 15 28.3 15.2 26.9 15.5 25.6 C 15.48 25.6 19 25.6 19 25.6 C 19 25.6 19.64 29.16 19.6 29.2 C 20.2 29.3 20.9 29.4 21.6 29.4 C 23.3 29.4 24.5 28.6 24.5 27.1 C 24.5 25.7 23.4 25.2 21.5 24.6 C 21.5 24.6 19.4 24 19.4 24 C 16.8 23.2 14.9 21.5 14.9 18.2 C 14.9 13.8 19 12 23.7 12 C 25.8 12 28.4 12.4 29.8 13.1 C 30 13.6 30 14.3 30 14.8 C 30 16 29.8 17.4 29.5 18.7 C 29.48 18.72 26 18.7 26 18.7 C 26 18.7 25.32 15.2 25.3 15.2 C 24.8 15.1 24.3 15 23.7 15 C 22.2 15 20.8 15.6 20.8 17 C 20.8 18.6 22 19 23.5 19.5 C 23.5 19.5 25.6 20.2 25.6 20.2 C 28.7 21.1 30.8 22.5 30.8 25.7 C 30.8 30 27.6 32.3 21.6 32.3 C 19.4 32.3 16.6 31.9 15.2 31.3 C 15 30.8 15 30.1 15 29.6 Z M 34.5 29.1 C 34.48 29.08 34.5 7.6 34.5 7.6 L 32.1 7.1 C 32.1 7.1 32.12 4.76 32.1 4.8 C 34.4 4.2 37.8 3.8 41.2 3.8 C 41.2 3.8 41.2 29.1 41.2 29.1 C 42.1 29.2 42.8 29.4 43.3 29.6 C 43.28 29.6 43.3 31.8 43.3 31.8 L 32.4 31.8 C 32.4 31.8 32.44 29.6 32.4 29.6 C 32.9 29.4 33.6 29.2 34.5 29.1 Z M 55.7 20.6 C 55.7 20.6 55.7 18.1 55.7 18.1 C 55.7 16.3 54.9 15.3 52.8 15.3 C 52.3 15.3 51.7 15.4 51 15.5 C 51.04 15.52 50.4 18.9 50.4 18.9 C 50.4 18.9 46.6 18.88 46.6 18.9 C 46.3 17.8 46.1 16.7 46.1 15.8 C 46.1 15.2 46.2 14.4 46.3 14 C 48.8 12.7 52 12.1 54.9 12.1 C 59.8 12.1 62.4 13.9 62.4 17.8 C 62.4 21 62.2 24.9 62.2 28.5 C 62.24 28.52 64.2 29 64.2 29 C 64.2 29 64.24 31.24 64.2 31.2 C 62 31.8 59.2 32.2 55.8 32.2 C 55.8 32.2 55.8 29.4 55.8 29.4 C 54.9 31.1 52.9 32.3 50.5 32.3 C 47.2 32.3 44.9 30.5 44.9 26.9 C 44.9 21.8 49.8 20.9 55.7 20.6 Z M 55.7 27.7 C 55.7 27.7 55.7 23 55.7 23 C 52.9 23.2 51.2 24 51.2 26.1 C 51.2 27.8 52.3 28.5 53.6 28.5 C 54.4 28.5 55.1 28.2 55.7 27.7 Z M 68.1 29.1 C 68.12 29.08 68.1 16.1 68.1 16.1 L 66.1 15.6 C 66.1 15.6 66.12 13.24 66.1 13.2 C 68.4 12.6 71.5 12.2 74.8 12.2 C 74.8 12.2 74.8 15.3 74.8 15.3 C 76.2 13.1 78.7 12 81.5 12 C 85.4 12 87.6 14.4 87.6 18 C 87.6 18 87.6 29.1 87.6 29.1 C 88.4 29.2 89.2 29.4 89.6 29.6 C 89.6 29.6 89.6 31.8 89.6 31.8 L 78.8 31.8 C 78.8 31.8 78.8 29.6 78.8 29.6 C 79.2 29.4 80 29.2 80.8 29.1 C 80.8 29.1 80.8 19.4 80.8 19.4 C 80.8 17.7 79.9 16.8 78.3 16.8 C 77 16.8 75.9 17.2 74.8 18.2 C 74.8 18.2 74.8 29.1 74.8 29.1 C 75.7 29.2 76.5 29.4 76.9 29.6 C 76.92 29.6 76.9 31.8 76.9 31.8 L 66.1 31.8 C 66.1 31.8 66.08 29.6 66.1 29.6 C 66.5 29.4 67.2 29.2 68.1 29.1 Z M 100.6 11.9 C 102.3 11.9 103.7 12.6 104.6 13.5 C 104.56 13.48 104.6 7.6 104.6 7.6 L 102.1 7.1 C 102.1 7.1 102.08 4.76 102.1 4.8 C 104.4 4.2 107.9 3.8 111.3 3.8 C 111.28 3.84 111.3 28.5 111.3 28.5 L 113.3 29 C 113.3 29 113.28 31.24 113.3 31.2 C 111 31.8 108.1 32.2 104.7 32.2 C 104.7 32.2 104.7 29 104.7 29 C 103.6 31.1 101.6 32.3 99.2 32.3 C 94.5 32.3 91.4 28.7 91.4 22.6 C 91.4 16 95.2 11.9 100.6 11.9 Z M 104.6 26.9 C 104.6 26.9 104.6 16 104.6 16 C 104.1 15.8 103.6 15.8 103.1 15.8 C 100 15.8 98.4 18.5 98.4 22 C 98.4 26.4 100 28 102.2 28 C 103.1 28 103.9 27.6 104.6 26.9 Z M 115.6 29.6 C 115.6 28.3 115.8 26.9 116.1 25.6 C 116.08 25.6 119.6 25.6 119.6 25.6 C 119.6 25.6 120.24 29.16 120.2 29.2 C 120.8 29.3 121.5 29.4 122.2 29.4 C 123.9 29.4 125.1 28.6 125.1 27.1 C 125.1 25.7 124 25.2 122.1 24.6 C 122.1 24.6 120 24 120 24 C 117.4 23.2 115.5 21.5 115.5 18.2 C 115.5 13.8 119.6 12 124.3 12 C 126.4 12 129 12.4 130.4 13.1 C 130.6 13.6 130.6 14.3 130.6 14.8 C 130.6 16 130.4 17.4 130.1 18.7 C 130.08 18.72 126.6 18.7 126.6 18.7 C 126.6 18.7 125.92 15.2 125.9 15.2 C 125.4 15.1 124.9 15 124.3 15 C 122.8 15 121.4 15.6 121.4 17 C 121.4 18.6 122.6 19 124.1 19.5 C 124.1 19.5 126.2 20.2 126.2 20.2 C 129.3 21.1 131.4 22.5 131.4 25.7 C 131.4 30 128.2 32.3 122.2 32.3 C 120 32.3 117.2 31.9 115.8 31.3 C 115.6 30.8 115.6 30.1 115.6 29.6 Z " stroke="none" fill="#404040"/>  </g></svg>
